public/flags/COC.svg

<svg fill="none" height="53" viewBox="0 0 61 53" width="61" xmlns="http://www.w3.org/2000/svg" xmlns:xlink="http://www.w3.org/1999/xlink"><linearGradient id="a" gradientUnits="userSpaceOnUse" x1="1" x2="1" y1="3" y2="45.5"><stop offset="0" stop-color="#19bfbf"/><stop offset="1" stop-color="#10acac"/></linearGradient><mask id="b" height="43" maskUnits="userSpaceOnUse" width="59" x="1" y="3"><rect fill="#fff" height="42.5" rx="4.24286" width="59" x="1" y="3"/></mask><rect fill="#fff" height="42.5" rx="4.24286" width="59" x="1" y="3"/><g mask="url(#b)"><path d="m1 3h59v42.5h-59z" fill="url(#a)"/><path clip-rule="evenodd" d="m29.3324 10.0833c-.1539 0-.3037.0503-.4265.1432l-5.3153 4.0202c-.0756.0572-.1618.0986-.2537.1217l-5.4041 1.3625c-.0504.0127-.0991.0309-.1455.0543l-5.3388 2.692c-.1367.0689-.2472.1802-.3152.3173l-2.52406 5.0909c-.11191.2257-.09528.4939.04365.7041l2.46791 3.7331c.0764.1157.1172.2513.1172.39v3.7462c0 .1865.0737.3655.205.4979l2.2428 2.2618c.2157.2175.5469.2714.8205.1335l7.8196-3.943c.0988-.0497.2078-.0757.3184-.0757h5.1932c.1664 0 .3275.0587.4549.1658l8.034 6.7518c.1275.107.2886.1658.455.1658h4.9811c.2374 0 .459-.1192.5899-.3172l5.2922-8.0055c.0764-.1157.1172-.2513.1172-.39v-5.2414c0-.1387-.0408-.2743-.1172-.39l-5.5018-8.3226-4.0087-6.73777c-.1275-.21427-.3584-.34557-.6077-.34557h-.8703c-.5694 0-.8557.68721-.4548 1.09147.1928.19449.2406.49007.119.73547l-1.0065 2.03c-.1193.2408-.3648.3931-.6335.3931h-3.337c-.2687 0-.5141-.1523-.6335-.3931l-1.015-2.0472c-.1194-.2408-.3649-.3931-.6336-.3931zm12.4056 29.75h-2.8095l.9026.9103c.2767.279.7277.279 1.0043 0z" fill="#fff" fill-rule="evenodd"/></g></svg>

<svg width="61" height="53" viewBox="0 0 61 53" fill="none" xmlns="http://www.w3.org/2000/svg">
<rect x="1" y="3" width="59" height="42.5" rx="4.24286" fill="white"/>
<mask id="mask0" mask-type="alpha" maskUnits="userSpaceOnUse" x="1" y="3" width="59" height="43">
<rect x="1" y="3" width="59" height="42.5" rx="4.24286" fill="white"/>
</mask>
<g mask="url(#mask0)">
<rect x="1" y="3" width="59" height="42.5" fill="url(#paint0_linear)"/>
<path fill-rule="evenodd" clip-rule="evenodd" d="M29.3324 10.0833C29.1785 10.0833 29.0287 10.1336 28.9059 10.2265L23.5906 14.2467C23.515 14.3039 23.4288 14.3453 23.3369 14.3684L17.9328 15.7309C17.8824 15.7436 17.8337 15.7618 17.7873 15.7852L12.4485 18.4772C12.3118 18.5461 12.2013 18.6574 12.1333 18.7945L9.60924 23.8854C9.49733 24.1111 9.51396 24.3793 9.65289 24.5895L12.1208 28.3226C12.1972 28.4383 12.238 28.5739 12.238 28.7126V32.4588C12.238 32.6453 12.3117 32.8243 12.443 32.9567L14.6858 35.2185C14.9015 35.436 15.2327 35.4899 15.5063 35.352L23.3259 31.409C23.4247 31.3593 23.5337 31.3333 23.6443 31.3333H28.8375C29.0039 31.3333 29.165 31.392 29.2924 31.4991L37.3264 38.2509C37.4539 38.3579 37.615 38.4167 37.7814 38.4167H42.7625C42.9999 38.4167 43.2215 38.2975 43.3524 38.0995L48.6446 30.094C48.721 29.9783 48.7618 29.8427 48.7618 29.704V24.4626C48.7618 24.3239 48.721 24.1883 48.6446 24.0726L43.1428 15.75L39.1341 9.01223C39.0066 8.79796 38.7757 8.66666 38.5264 8.66666H37.6561C37.0867 8.66666 36.8004 9.35387 37.2013 9.75813C37.3941 9.95262 37.4419 10.2482 37.3203 10.4936L36.3138 12.5236C36.1945 12.7644 35.949 12.9167 35.6803 12.9167H32.3433C32.0746 12.9167 31.8292 12.7644 31.7098 12.5236L30.6948 10.4764C30.5754 10.2356 30.3299 10.0833 30.0612 10.0833H29.3324ZM41.738 39.8333H38.9285L39.8311 40.7436C40.1078 41.0226 40.5588 41.0226 40.8354 40.7436L41.738 39.8333Z" fill="white"/>
</g>
<defs>
<linearGradient id="paint0_linear" x1="1" y1="3" x2="1" y2="45.5" gradientUnits="userSpaceOnUse">
<stop stop-color="#19BFBF"/>
<stop offset="1" stop-color="#10ACAC"/>
</linearGradient>
</defs>
</svg>
